X:1
T:Title
%%score { ( 1 3 ) | ( 2 4 ) }
L:1/8
M:4/4
K:G
V:1 treble nm="Grand Piano"
V:3 treble 
V:2 bass 
V:4 bass 
V:1
 z4 z2[Q:1/4=100] [B,D]2 | [B,G]2 [B,G][CA] [DB]2 [DA][DG] | [EA]2 [CE][CE] [EA]2 [EG]2 | %3
 F F2 E D2 FB | A6[K:bass][K:treble] z2 | [B,G]2 [B,G][CA] [DB]2 [DA][DG] | %6
 [EA]2 [G,CE][G,CE] [CEA]2 [EAc]2 | [DGB] [DGB]2 [B,G] [CFA]2 [CFA][CDF] |[M:3/4] [B,DG]6 | %9
[M:1/4] Bc |[M:4/4] d d2 d d2 cB | c6 z2 | [Fc] [Fc]2 [Fc] [Fc]2 [GB][FA] | B6 z2 | dddd e d2 B | %15
 GG[=FG][FG] [EA] [CEG]2 [G,CE] | [G,B,D] [B,DG]2 [EGc] [DGB]2 [CFA][CFA] |[M:3/4] [B,G]6 |] %18
V:2
 z4 z2 [G,,G,]2 | [G,,G,]2 [G,,G,][G,,G,] [G,,G,]2 [A,,F,][B,,G,] | %2
 [C,G,]2 [C,G,][C,G,] [C,C]2 [C,C]2 | [D,A,D] [D,A,D]2 [D,G,D] [D,F,]2 [D,A,D][F,A,D] | %4
 [G,D]6 [G,,G,]2 | [G,,G,]2 [G,,G,][G,,G,] [G,,G,]2 [A,,F,][B,,G,] | [C,G,]2 C,C, C,2 C,2 | %7
 D, D,2 D, D,2 D,D, |[M:3/4] G,,6 |[M:1/4][K:treble] [G,G]2 | %10
[M:4/4] [G,B,G] [G,B,G]2 [G,B,G] [G,B,G]2 [G,EG][G,DG] | %11
 [A,DF]2[K:bass] [F,A,][E,A,] [D,A,]2 z[K:treble] B | [D,A,] [D,A,]2 [D,A,] [D,D]2 [D,D][D,D] | %13
 [G,DG]2 [D,D]B,, G,,2[K:treble] [G,G][G,A,G] | %14
 [G,B,G][G,B,G][G,B,G][G,B,G] [G,CG] [G,B,G]2 [G,DG] | [G,B,D][G,B,D][B,,G,][B,,G,] [C,G,] C,2 C, | %16
 D, D,2 A,, D,2 D,D, |[M:3/4] G,,6 |] %18
V:3
 x8 | x8 | x8 | x8 | z2[K:bass] D,B,, G,,2[K:treble] [B,D]2 | x8 | x8 | x8 |[M:3/4] x6 | %9
[M:1/4] x2 |[M:4/4] x8 | z2 DE F2 .[DFA]2 | x8 | z2 G[DG] [DG]2 Bc | x8 | x8 | x8 |[M:3/4] x6 |] %18
V:4
 x8 | x8 | x8 | x8 | x8 | x8 | x8 | x8 |[M:3/4] x6 |[M:1/4][K:treble] z A, |[M:4/4] x8 | %11
 z4[K:bass] z2 D,2[K:treble] | x8 | x6[K:treble] x2 | x8 | x8 | x8 |[M:3/4] x6 |] %18

